X: 1
T: War Song
C: Anon.
%%abc-version 2.0
%%abcx-abcm2ps-target-version 5.9.1 (29 Sep 2008)
%%abc-creator hum2abc beta
%%abcx-conversion-date 2020/08/10 20:56:09
%%abc-copyright Electronic Copyright 2000 David Huron
%%abc-edited-by David Huron
%%abcx-initial-encoding-date August 27, 2000
%%humdrum-veritas 1578928481
%%humdrum-veritas-data 2288916673
%%linebreak <none>
%%barnumbers 0
L: 1/16
M: 2/4
Q: 1/4=63
K: Db clef=bass
D2 B,2 B, B,2 D | 
D4D2 B,2[M:3/4] | 
D2 B,2 A, A,2 A, =A,2 B, _A, | 
B, A,2 A, A,2 A, z A,2 A, z[M:5/8] | 
A,2 A,2- A,2 A, z z2[M:2/4] | 
E2 D2 B, B,2 D | 
D4D2 B,2[M:3/4] | 
D2 B,2 A, A,2 A, A,2 B, A, | 
B, A,2 A A,2 A, z A,2 A, z[M:5/8] | 
A,2 A,2- A,2 A, z z2[M:2/4] | 
D2 B,2 D B,2 E | 
D4D2 B,2[M:3/4] | 
D2 B,2 A, A,2 A, A,2 B, A, | 
B, A,2 A, A,2 A, z A,2 A, z[M:2/4] | 
A,2 A,2- A,2 A, z | 
z2> B,2B,4 | 
D4D2 B,3/ B,/ | 
A,4A,3 B,[M:3/4] | 
B,> B, B,2 A,> A, A,2-A,4[M:2/4] | 
A,2 z2 A,2 A, z/ A,/ | 
A,2 z B,B,4 | 
D4D2 B,3/ B,/ | 
A,4A,3 B,[M:3/4] | 
B,> B, B,2 A,> A, A,2-A,4[M:2/4] | 
A,2 z2 A,2 A, z/ A,/ | 
A,8 |]  


